actions/22x22-light/news-subscribe.svg

<svg viewBox="0 0 22 22" xmlns="http://www.w3.org/2000/svg"><path d="m4.52298 3c1.33041 0 2.61123.17214 3.84245.51641 1.23121.34428 2.38366.83151 3.4573 1.46171 1.0737.6302 2.05108 1.38585 2.93228 2.26696.88108.88111 1.63673 1.85849 2.26696 2.93216.63011 1.07376 1.11734 2.22617 1.4617 3.45742.34431 1.23119.51644 2.51192.51644 3.84245 0 .42013-.14876.77888-.44636 1.07656-.29759.29768-.65642.44633-1.07656.44633-.42015 0-.77899-.14872-1.07667-.44633-.29753-.29759-.44633-.65643-.44633-1.07656 0-1.05042-.13715-2.06276-.41141-3.03732-.27425-.97436-.65945-1.88472-1.15544-2.73082-.49599-.84613-1.09109-1.61637-1.78556-2.31075-.69441-.69438-1.4646-1.28957-2.31072-1.78556-.8461-.49599-1.75639-.88112-2.73086-1.15536-.97447-.27426-1.98687-.41138-3.0372-.41138-.42013 0-.77899-.14879-1.07658-.44639-.29759-.29759-.44639-.65645-.44639-1.07658s.1488-.779.44639-1.07659c.29756-.29756.65642-.44636 1.07656-.44636zm0 5.7593c1.20204 0 2.33114.23049 3.3873.69147 1.05617.46097 1.97812 1.08533 2.76587 1.87308.78777.78778 1.41214 1.70967 1.87308 2.76578.46101 1.05628.69147 2.18527.69147 3.38742 0 .42013-.14877.77888-.44633 1.07656-.2976.29759-.65643.44633-1.07667.44633-.42014 0-.77897-.14872-1.07656-.44633-.2976-.29759-.44639-.65643-.44639-1.07656 0-.78197-.1488-1.51717-.44639-2.20571-.29759-.68855-.70314-1.28957-1.21663-1.80304-.5135-.51352-1.11452-.91907-1.80307-1.21666-.68854-.29753-1.42377-.44633-2.20568-.44633-.42014 0-.779-.14877-1.07659-.44636-.29759-.29762-.44639-.65649-.44639-1.07662s.1488-.77899.44639-1.07658c.29759-.29765.65645-.44645 1.07659-.44645zm2.80087 7.99997c0 .30346-.0554.58352-.1663.84029-.11087.25684-.26258.4814-.45514.67399-.19256.19248-.42013.34425-.68272.45514-.26258.11084-.53975.16622-.83151.16622-.30342 0-.58351-.0554-.84026-.16622-.25675-.11084-.4814-.26269-.67396-.45514-.19256-.19256-.34427-.41721-.45514-.67399-.11087-.25677-.1663-.53683-.1663-.84029 0-.29167.0554-.5689.1663-.83139.11087-.2627.26258-.49024.45514-.68275.19256-.19256.41721-.34424.67396-.45515.25675-.11084.53684-.16629.84026-.16629.29176 0 .56893.0555.83151.16629.26259.11091.49016.26258.68272.45515.19256.1925.34427.42012.45514.68275.11087.26252.1663.53966.1663.83139z" fill="#4d4d4d"/></svg>

<svg xmlns="http://www.w3.org/2000/svg" viewBox="0 0 22 22">
  <defs id="defs3051">
    <style type="text/css" id="current-color-scheme">
      .ColorScheme-Text {
        color:#4d4d4d
      }
      </style>
  </defs>
 <path 
     style="fill:currentColor;fill-opacity:1;stroke:none"      
	 class="ColorScheme-Text"
        d="m 4.52298,3 c 1.33041,0 2.61123,0.17214 3.84245,0.51641 1.23121,0.34428 2.38366,0.83151 3.4573,1.46171 1.0737,0.6302 2.05108,1.38585 2.93228,2.26696 0.88108,0.88111 1.63673,1.85849 2.26696,2.93216 0.63011,1.07376 1.11734,2.22617 1.4617,3.45742 0.34431,1.23119 0.51644,2.51192 0.51644,3.84245 0,0.42013 -0.14876,0.77888 -0.44636,1.07656 C 18.25616,18.85135 17.89733,19 17.47719,19 c -0.42015,0 -0.77899,-0.14872 -1.07667,-0.44633 -0.29753,-0.29759 -0.44633,-0.65643 -0.44633,-1.07656 0,-1.05042 -0.13715,-2.06276 -0.41141,-3.03732 C 15.26853,13.46543 14.88333,12.55507 14.38734,11.70897 13.89135,10.86284 13.29625,10.0926 12.60178,9.39822 11.90737,8.70384 11.13718,8.10865 10.29106,7.61266 9.44496,7.11667 8.53467,6.73154 7.5602,6.4573 6.58573,6.18304 5.57333,6.04592 4.523,6.04592 4.10287,6.04592 3.74401,5.89713 3.44642,5.59953 3.14883,5.30194 3.00003,4.94308 3.00003,4.52295 c 0,-0.42013 0.1488,-0.779 0.44639,-1.07659 C 3.74398,3.1488 4.10284,3 4.52298,3 Z m 0,5.7593 c 1.20204,0 2.33114,0.23049 3.3873,0.69147 1.05617,0.46097 1.97812,1.08533 2.76587,1.87308 0.78777,0.78778 1.41214,1.70967 1.87308,2.76578 0.46101,1.05628 0.69147,2.18527 0.69147,3.38742 0,0.42013 -0.14877,0.77888 -0.44633,1.07656 -0.2976,0.29759 -0.65643,0.44633 -1.07667,0.44633 -0.42014,0 -0.77897,-0.14872 -1.07656,-0.44633 -0.2976,-0.29759 -0.44639,-0.65643 -0.44639,-1.07656 0,-0.78197 -0.1488,-1.51717 -0.44639,-2.20571 C 9.45077,14.58279 9.04522,13.98177 8.53173,13.4683 8.01823,12.95478 7.41721,12.54923 6.72866,12.25164 6.04012,11.95411 5.30489,11.80531 4.52298,11.80531 c -0.42014,0 -0.779,-0.14877 -1.07659,-0.44636 C 3.1488,11.06133 3,10.70246 3,10.28233 3,9.8622 3.1488,9.50334 3.44639,9.20575 3.74398,8.9081 4.10284,8.7593 4.52298,8.7593 Z m 2.80087,7.99997 c 0,0.30346 -0.0554,0.58352 -0.1663,0.84029 -0.11087,0.25684 -0.26258,0.4814 -0.45514,0.67399 -0.19256,0.19248 -0.42013,0.34425 -0.68272,0.45514 -0.26258,0.11084 -0.53975,0.16622 -0.83151,0.16622 -0.30342,0 -0.58351,-0.0554 -0.84026,-0.16622 C 4.09117,18.61785 3.86652,18.466 3.67396,18.27355 3.4814,18.08099 3.32969,17.85634 3.21882,17.59956 3.10795,17.34279 3.05252,17.06273 3.05252,16.75927 c 0,-0.29167 0.0554,-0.5689 0.1663,-0.83139 0.11087,-0.2627 0.26258,-0.49024 0.45514,-0.68275 0.19256,-0.19256 0.41721,-0.34424 0.67396,-0.45515 0.25675,-0.11084 0.53684,-0.16629 0.84026,-0.16629 0.29176,0 0.56893,0.0555 0.83151,0.16629 0.26259,0.11091 0.49016,0.26258 0.68272,0.45515 0.19256,0.1925 0.34427,0.42012 0.45514,0.68275 0.11087,0.26252 0.1663,0.53966 0.1663,0.83139 z"
     />
</svg>
